images/basic-branching-5.svg

<?xml version="1.0"?>
<svg xmlns="http://www.w3.org/2000/svg" xmlns:xlink="http://www.w3.org/1999/xlink" width="492px" height="295px" viewBox="0 0 492 295" version="1.1">
    <!-- Generator: Sketch 56.3 (81716) - https://sketch.com -->
    <title>images/basic-branching-5</title>
    <desc>Created with Sketch.</desc>
    <g id="03---Basic-Branching-4" stroke="none" stroke-width="1" fill="none" fill-rule="evenodd">
        <path id="Line" d="M98,146 L133,146 L133,147 L98,147 L98,151 L89,146.5 L98,142 L98,146 Z" fill="#8F8981" fill-rule="nonzero"/>
        <path id="Line-2" d="M225,148 L260,148 L260,149 L225,149 L225,153 L216,148.5 L225,144 L225,148 Z" fill="#8F8981" fill-rule="nonzero"/>
        <path id="Line-6" d="M352,147 L387,147 L387,148 L352,148 L352,152 L343,147.5 L352,143 L352,147 Z" fill="#8F8981" fill-rule="nonzero"/>
        <g id="brown" transform="translate(0.000000, 131.000000)">
            <rect id="Rectangle-1" fill="#EFEFE7" fill-rule="evenodd" x="0" y="0" width="89" height="33" rx="16.5"/>
            <text stroke="none" font-family="Source Code Pro" font-size="12px" font-weight="900" fill="#979797" fill-opacity="1" text-anchor="middle" id="C6">
                <tspan fill="#808080" x="44.5" y="21" fill-opacity="1">C0</tspan>
            </text>
        </g>
        <g id="brown" transform="translate(127.000000, 131.000000)">
            <rect id="Rectangle-1" fill="#EFEFE7" fill-rule="evenodd" x="0" y="0" width="89" height="33" rx="16.5"/>
            <text stroke="none" font-family="Source Code Pro" font-size="12px" font-weight="900" fill="#979797" fill-opacity="1" text-anchor="middle" id="C6">
                <tspan fill="#808080" x="44.5" y="21" fill-opacity="1">C1</tspan>
            </text>
        </g>
        <g id="brown" transform="translate(254.000000, 131.000000)">
            <rect id="Rectangle-1" fill="#EFEFE7" fill-rule="evenodd" x="0" y="0" width="89" height="33" rx="16.5"/>
            <text stroke="none" font-family="Source Code Pro" font-size="12px" font-weight="900" fill="#979797" fill-opacity="1" text-anchor="middle" id="C6">
                <tspan fill="#808080" x="44.5" y="21" fill-opacity="1">C2</tspan>
            </text>
        </g>
        <path d="M425.5,32.5 L425.5,72.5" id="Line-3" stroke="#8F8981" fill="#8F8981" stroke-linecap="square"/>
        <g id="ref" transform="translate(382.000000, 11.000000)">
            <rect id="Rectangle-2" fill="#F44D27" fill-rule="evenodd" x="0" y="0" width="106" height="33"/>
            <text stroke="none" font-family="Source Code Pro" font-size="12px" font-weight="900" fill="#979797" fill-opacity="1" text-anchor="middle" id="master">
                <tspan fill="#f0f0f0" x="53" y="20" fill-opacity="1">master</tspan>
            </text>
        </g>
        <path id="Line-5" d="M347.178048,162.782393 L387.205942,198.459429 L386.540571,199.205942 L346.512678,163.528906 L343.851195,166.514959 L340.126743,157.167315 L349.83953,159.79634 L347.178048,162.782393 Z" fill="#8F8981" fill-rule="nonzero"/>
        <g id="Line-7-+-ref-3" transform="translate(382.000000, 69.000000)">
            <path id="Line-7" d="M43,53 L43,21 L44,21 L44,53 L48,53 L43.5,62 L39,53 L43,53 Z" fill="#8F8981" fill-rule="nonzero"/>
            <g id="ref">
                <rect id="Rectangle-2" fill="#F44D27" fill-rule="evenodd" x="0" y="0" width="106" height="33"/>
                <text stroke="none" font-family="Source Code Pro" font-size="12px" font-weight="900" fill="#979797" fill-opacity="1" text-anchor="middle" id="master">
                    <tspan fill="#f0f0f0" x="53" y="20" fill-opacity="1">hotfix</tspan>
                </text>
            </g>
        </g>
        <g id="brown" transform="translate(381.000000, 131.000000)">
            <rect id="Rectangle-1" fill="#EFEFE7" fill-rule="evenodd" x="0" y="0" width="89" height="33" rx="16.5"/>
            <text stroke="none" font-family="Source Code Pro" font-size="12px" font-weight="900" fill="#979797" fill-opacity="1" text-anchor="middle" id="C6">
                <tspan fill="#808080" x="44.5" y="21" fill-opacity="1">C4</tspan>
            </text>
        </g>
        <g id="brown-4-+-Line-4-+-ref-2" transform="translate(381.000000, 189.000000)">
            <g id="brown">
                <rect id="Rectangle-1" fill="#EFEFE7" fill-rule="evenodd" x="0" y="0" width="89" height="33" rx="16.5"/>
                <text stroke="none" font-family="Source Code Pro" font-size="12px" font-weight="900" fill="#979797" fill-opacity="1" text-anchor="middle" id="C6">
                    <tspan fill="#808080" x="44.5" y="21" fill-opacity="1">C3</tspan>
                </text>
            </g>
            <g id="Line-4-+-ref-2" transform="translate(2.000000, 33.000000)">
                <path id="Line-4" d="M44,9 L44,44 L43,44 L43,9 L39,9 L43.5,0 L48,9 L44,9 Z" fill="#8F8981" fill-rule="nonzero"/>
                <g id="ref" transform="translate(0.000000, 29.000000)">
                    <rect id="Rectangle-2" fill="#F44D27" fill-rule="evenodd" x="0" y="0" width="106" height="33"/>
                    <text stroke="none" font-family="Source Code Pro" font-size="12px" font-weight="900" fill="#979797" fill-opacity="1" text-anchor="middle" id="master">
                        <tspan fill="#f0f0f0" x="53" y="20" fill-opacity="1">iss53</tspan>
                    </text>
                </g>
            </g>
        </g>
    </g>
</svg>

<?xml version="1.0" encoding="UTF-8"?>
<svg id="svg34148" version="1.1" viewBox="0 0 478 281" xmlns="http://www.w3.org/2000/svg" xmlns:cc="http://creativecommons.org/ns#" xmlns:dc="http://purl.org/dc/elements/1.1/" xmlns:rdf="http://www.w3.org/1999/02/22-rdf-syntax-ns#">
 <metadata id="metadata34154">
  <rdf:RDF>
   <cc:Work rdf:about="">
    <dc:format>image/svg+xml</dc:format>
    <dc:type rdf:resource="http://purl.org/dc/dcmitype/StillImage"/>
    <dc:title>images/basic-branching-5</dc:title>
   </cc:Work>
  </rdf:RDF>
 </metadata>
 <!-- Generator: Sketch 56.3 (81716) - https://sketch.com -->
 <title id="title34075">images/basic-branching-5</title>
 <desc id="desc34077">Created with Sketch.</desc>
 <g id="03---Basic-Branching-4" transform="translate(4,-7)" style="fill-rule:evenodd;fill:none">
  <path id="Line" d="m98 146h35v1h-35v4l-9-4.5 9-4.5z" style="fill-rule:nonzero;fill:#8f8981"/>
  <path id="Line-2" d="m225 148h35v1h-35v4l-9-4.5 9-4.5z" style="fill-rule:nonzero;fill:#8f8981"/>
  <path id="Line-6" d="m352 147h35v1h-35v4l-9-4.5 9-4.5z" style="fill-rule:nonzero;fill:#8f8981"/>
  <g id="brown" transform="translate(0,131)">
   <rect id="Rectangle-1" width="89" height="33" rx="16.5" ry="16.5" style="fill-rule:evenodd;fill:#efefe7"/>
   <text id="C6" font-size="12px" font-weight="700" style="fill:#979797;font-family:'Source Code Pro';font-size:12px;font-weight:700;text-anchor:middle"><tspan id="tspan34083" x="44.5" y="21" style="fill:gray">C0</tspan></text>
  </g>
  <g id="g34093" transform="translate(127,131)">
   <rect id="rect34087" width="89" height="33" rx="16.5" ry="16.5" style="fill-rule:evenodd;fill:#efefe7"/>
   <text id="text34091" font-size="12px" font-weight="700" style="fill:#979797;font-family:'Source Code Pro';font-size:12px;font-weight:700;text-anchor:middle"><tspan id="tspan34089" x="44.5" y="21" style="fill:gray">C1</tspan></text>
  </g>
  <g id="g34101" transform="translate(254,131)">
   <rect id="rect34095" width="89" height="33" rx="16.5" ry="16.5" style="fill-rule:evenodd;fill:#efefe7"/>
   <text id="text34099" font-size="12px" font-weight="700" style="fill:#979797;font-family:'Source Code Pro';font-size:12px;font-weight:700;text-anchor:middle"><tspan id="tspan34097" x="44.5" y="21" style="fill:gray">C2</tspan></text>
  </g>
  <path id="Line-3" d="m425.5 32.5v40" style="fill:#8f8981;stroke-linecap:square;stroke:#8f8981"/>
  <g id="ref" transform="translate(381,11)">
   <rect id="Rectangle-2" transform="scale(.83962 1)" width="106" height="33" style="fill-rule:evenodd;fill:#f44d27"/>
   <text id="master" transform="translate(-8.4003 .316)" font-size="12px" font-weight="700" style="fill:#979797;font-family:'Source Code Pro';font-size:12px;font-weight:700;text-anchor:middle"><tspan id="tspan34105" x="53" y="20" style="fill:#f0f0f0">master</tspan></text>
  </g>
  <path id="Line-5" d="m347.18 162.78 40.028 35.677-.66537.74651-40.028-35.677-2.6615 2.986-3.7245-9.3476 9.7128 2.629z" style="fill-rule:nonzero;fill:#8f8981"/>
  <g id="Line-7-+-ref-3" transform="translate(382,69)">
   <path id="Line-7" d="m43 53v-32h1v32h4l-4.5 9-4.5-9z" style="fill-rule:nonzero;fill:#8f8981"/>
   <g id="g34117" transform="translate(-1)">
    <rect id="rect34111" transform="scale(.83962 1)" width="106" height="33" style="fill-rule:evenodd;fill:#f44d27"/>
    <text id="text34115" transform="translate(-8.7063 .958)" font-size="12px" font-weight="700" style="fill:#979797;font-family:'Source Code Pro';font-size:12px;font-weight:700;text-anchor:middle"><tspan id="tspan34113" x="53" y="20" style="fill:#f0f0f0">hotfix</tspan></text>
   </g>
  </g>
  <g id="g34126" transform="translate(381,131)">
   <rect id="rect34120" width="89" height="33" rx="16.5" ry="16.5" style="fill-rule:evenodd;fill:#efefe7"/>
   <text id="text34124" font-size="12px" font-weight="700" style="fill:#979797;font-family:'Source Code Pro';font-size:12px;font-weight:700;text-anchor:middle"><tspan id="tspan34122" x="44.5" y="21" style="fill:gray">C4</tspan></text>
  </g>
  <g id="brown-4-+-Line-4-+-ref-2" transform="translate(381,189)">
   <g id="g34134">
    <rect id="rect34128" width="89" height="33" rx="16.5" ry="16.5" style="fill-rule:evenodd;fill:#efefe7"/>
    <text id="text34132" font-size="12px" font-weight="700" style="fill:#979797;font-family:'Source Code Pro';font-size:12px;font-weight:700;text-anchor:middle"><tspan id="tspan34130" x="44.5" y="21" style="fill:gray">C3</tspan></text>
   </g>
  </g>
  <g id="Line-4-+-ref-2" transform="translate(383,222)">
   <path id="Line-4" transform="translate(-1)" d="m44 9v35h-1v-35h-4l4.5-9 4.5 9z" style="fill-rule:nonzero;fill:#8f8981"/>
   <g id="g34143" transform="translate(-2,29)">
    <rect id="rect34137" transform="scale(.83962 1)" width="106" height="33" style="fill-rule:evenodd;fill:#f44d27"/>
    <text id="text34141" transform="translate(-8.5623 .958)" font-size="12px" font-weight="700" style="fill:#979797;font-family:'Source Code Pro';font-size:12px;font-weight:700;text-anchor:middle"><tspan id="tspan34139" x="53" y="20" style="fill:#f0f0f0">iss53</tspan></text>
   </g>
  </g>
 </g>
</svg>
